public/img/nextjs.svg

<svg width="148" height="89" viewBox="0 0 148 89" fill="none" xmlns="http://www.w3.org/2000/svg">
<g clip-path="url(#clip0_136_2)">
<path d="M34.9925 23.4216H62.8472V25.6334H37.5458V42.2802H61.3384V44.4921H37.5458V62.7687H63.1374V64.9805H34.9925V23.4216ZM65.3425 23.4216H68.3021L81.417 41.6982L94.8221 23.4216L113.055 0.206055L83.0999 43.619L98.5361 64.9805H95.4604L81.417 45.5398L67.3156 64.9805H64.298L79.8502 43.619L65.3425 23.4216ZM99.6386 25.6334V23.4216H131.381V25.6334H116.758V64.9805H114.204V25.6334H99.6386Z" fill="#EEEEEE"/>
<path d="M0.145088 23.4214H3.33677L47.3483 89.2176L29.1604 64.9803L2.8145 26.5645L2.69844 64.9803H0.145088V23.4214Z" fill="#EEEEEE"/>
<path d="M131.124 62.1012C131.652 62.1012 132.037 61.6973 132.037 61.1755C132.037 60.6536 131.652 60.2498 131.124 60.2498C130.602 60.2498 130.211 60.6536 130.211 61.1755C130.211 61.6973 130.602 62.1012 131.124 62.1012ZM133.633 59.6659C133.633 61.2066 134.745 62.213 136.366 62.213C138.092 62.213 139.135 61.1755 139.135 59.3739V53.0309H137.744V59.3677C137.744 60.3679 137.241 60.9021 136.353 60.9021C135.558 60.9021 135.018 60.4051 134.999 59.6659H133.633ZM140.955 59.5851C141.054 61.1879 142.39 62.213 144.377 62.213C146.501 62.213 147.83 61.1382 147.83 59.4236C147.83 58.0755 147.072 57.33 145.234 56.9013L144.247 56.659C143.079 56.3857 142.607 56.0191 142.607 55.3792C142.607 54.5716 143.34 54.0435 144.439 54.0435C145.482 54.0435 146.203 54.5592 146.333 55.3854H147.687C147.606 53.8758 146.277 52.8135 144.458 52.8135C142.501 52.8135 141.197 53.8758 141.197 55.4724C141.197 56.7895 141.936 57.5722 143.557 57.9512L144.712 58.2308C145.899 58.5103 146.42 58.9204 146.42 59.6037C146.42 60.3989 145.6 60.9767 144.483 60.9767C143.284 60.9767 142.452 60.4362 142.334 59.5851H140.955Z" fill="#EEEEEE"/>
</g>
<defs>
<clipPath id="clip0_136_2">
<rect width="148" height="89" fill="white"/>
</clipPath>
</defs>
</svg>

<svg xmlns="http://www.w3.org/2000/svg" width="148" height="89" fill="none" xmlns:v="https://vecta.io/nano"><g clip-path="url(#A)" fill="#eee"><path d="M34.993 23.422h27.855v2.212H37.546V42.28h23.793v2.212H37.546v18.277h25.592v2.212H34.993V23.422zm30.35 0h2.96l13.115 18.277 13.405-18.277L113.055.206 83.1 43.619l15.436 21.362H95.46L81.417 45.54 67.316 64.981h-3.018L79.85 43.619 65.343 23.422zm34.296 2.212v-2.212h31.742v2.212h-14.623v39.347h-2.554V25.633H99.639zM.145 23.421h3.192l44.012 65.796L29.16 64.98 2.815 26.565 2.698 64.98H.145V23.421zm130.979 38.68c.528 0 .913-.404.913-.926s-.385-.926-.913-.926a.9.9 0 0 0-.913.926.9.9 0 0 0 .913.926zm2.509-2.435c0 1.541 1.112 2.547 2.733 2.547 1.726 0 2.769-1.038 2.769-2.839v-6.343h-1.391v6.337c0 1-.503 1.534-1.391 1.534-.795 0-1.335-.497-1.354-1.236h-1.366zm7.322-.081c.099 1.603 1.435 2.628 3.422 2.628 2.124 0 3.453-1.075 3.453-2.789 0-1.348-.758-2.094-2.596-2.522l-.987-.242c-1.168-.273-1.64-.64-1.64-1.28 0-.808.733-1.336 1.832-1.336 1.043 0 1.764.516 1.894 1.342h1.354c-.081-1.51-1.41-2.572-3.229-2.572-1.957 0-3.261 1.062-3.261 2.659 0 1.317.739 2.1 2.36 2.479l1.155.28c1.187.279 1.708.69 1.708 1.373 0 .795-.82 1.373-1.937 1.373-1.199 0-2.031-.541-2.149-1.392h-1.379z"/></g><defs><clipPath id="A"><path fill="#fff" d="M0 0h148v89H0z"/></clipPath></defs></svg>
